src/assets/filled/CalendarTick.svg

<svg width="24" height="24" viewBox="0 0 24 24"  xmlns="http://www.w3.org/2000/svg">
<path d="M16.75 3.56V2C16.75 1.59 16.41 1.25 16 1.25C15.59 1.25 15.25 1.59 15.25 2V3.5H8.74999V2C8.74999 1.59 8.40999 1.25 7.99999 1.25C7.58999 1.25 7.24999 1.59 7.24999 2V3.56C4.54999 3.81 3.23999 5.42 3.03999 7.81C3.01999 8.1 3.25999 8.34 3.53999 8.34H20.46C20.75 8.34 20.99 8.09 20.96 7.81C20.76 5.42 19.45 3.81 16.75 3.56Z" />
<path d="M19 15C16.79 15 15 16.79 15 19C15 19.75 15.21 20.46 15.58 21.06C16.27 22.22 17.54 23 19 23C20.46 23 21.73 22.22 22.42 21.06C22.79 20.46 23 19.75 23 19C23 16.79 21.21 15 19 15ZM21.07 18.57L18.94 20.54C18.8 20.67 18.61 20.74 18.43 20.74C18.24 20.74 18.05 20.67 17.9 20.52L16.91 19.53C16.62 19.24 16.62 18.76 16.91 18.47C17.2 18.18 17.68 18.18 17.97 18.47L18.45 18.95L20.05 17.47C20.35 17.19 20.83 17.21 21.11 17.51C21.39 17.81 21.37 18.28 21.07 18.57Z" />
<path d="M20 9.83984H4C3.45 9.83984 3 10.2898 3 10.8398V16.9998C3 19.9998 4.5 21.9998 8 21.9998H12.93C13.62 21.9998 14.1 21.3298 13.88 20.6798C13.68 20.0998 13.51 19.4598 13.51 18.9998C13.51 15.9698 15.98 13.4998 19.01 13.4998C19.3 13.4998 19.59 13.5198 19.87 13.5698C20.47 13.6598 21.01 13.1898 21.01 12.5898V10.8498C21 10.2898 20.55 9.83984 20 9.83984ZM9.21 18.2098C9.02 18.3898 8.76 18.4998 8.5 18.4998C8.24 18.4998 7.98 18.3898 7.79 18.2098C7.61 18.0198 7.5 17.7598 7.5 17.4998C7.5 17.2398 7.61 16.9798 7.79 16.7898C7.89 16.6998 7.99 16.6298 8.12 16.5798C8.49 16.4198 8.93 16.5098 9.21 16.7898C9.39 16.9798 9.5 17.2398 9.5 17.4998C9.5 17.7598 9.39 18.0198 9.21 18.2098ZM9.21 14.7098C9.16 14.7498 9.11 14.7898 9.06 14.8298C9 14.8698 8.94 14.8998 8.88 14.9198C8.82 14.9498 8.76 14.9698 8.7 14.9798C8.63 14.9898 8.56 14.9998 8.5 14.9998C8.24 14.9998 7.98 14.8898 7.79 14.7098C7.61 14.5198 7.5 14.2598 7.5 13.9998C7.5 13.7398 7.61 13.4798 7.79 13.2898C8.02 13.0598 8.37 12.9498 8.7 13.0198C8.76 13.0298 8.82 13.0498 8.88 13.0798C8.94 13.0998 9 13.1298 9.06 13.1698C9.11 13.2098 9.16 13.2498 9.21 13.2898C9.39 13.4798 9.5 13.7398 9.5 13.9998C9.5 14.2598 9.39 14.5198 9.21 14.7098ZM12.71 14.7098C12.52 14.8898 12.26 14.9998 12 14.9998C11.74 14.9998 11.48 14.8898 11.29 14.7098C11.11 14.5198 11 14.2598 11 13.9998C11 13.7398 11.11 13.4798 11.29 13.2898C11.67 12.9198 12.34 12.9198 12.71 13.2898C12.89 13.4798 13 13.7398 13 13.9998C13 14.2598 12.89 14.5198 12.71 14.7098Z" />
</svg>

<?xml version="1.0" encoding="UTF-8"?>
<svg width="24" height="24" viewBox="0 0 24 24" xmlns="http://www.w3.org/2000/svg">
 <path d="m16.75 3.56v-1.56c0-0.41-0.34-0.75-0.75-0.75s-0.75 0.34-0.75 0.75v1.5h-6.5v-1.5c0-0.41-0.34-0.75-0.75-0.75s-0.75 0.34-0.75 0.75v1.56c-2.7 0.25-4.01 1.86-4.21 4.25-0.02 0.29 0.22 0.53 0.5 0.53h16.92c0.29 0 0.53-0.25 0.5-0.53-0.2-2.39-1.51-4-4.21-4.25z"/>
 <path d="m19 15c-2.21 0-4 1.79-4 4 0 0.75 0.21 1.46 0.58 2.06 0.69 1.16 1.96 1.94 3.42 1.94s2.73-0.78 3.42-1.94c0.37-0.6 0.58-1.31 0.58-2.06 0-2.21-1.79-4-4-4zm2.07 3.57-2.13 1.97c-0.14 0.13-0.33 0.2-0.51 0.2-0.19 0-0.38-0.07-0.53-0.22l-0.99-0.99c-0.29-0.29-0.29-0.77 0-1.06s0.77-0.29 1.06 0l0.48 0.48 1.6-1.48c0.3-0.28 0.78-0.26 1.06 0.04s0.26 0.77-0.04 1.06z"/>
 <path d="m20 9.8398h-16c-0.55 0-1 0.44996-1 0.99996v6.16c0 3 1.5 5 5 5h4.93c0.69 0 1.17-0.67 0.95-1.32-0.2-0.58-0.37-1.22-0.37-1.68 0-3.03 2.47-5.5 5.5-5.5 0.29 0 0.58 0.02 0.86 0.07 0.6 0.09 1.14-0.38 1.14-0.98v-1.74c-0.01-0.56-0.46-1.01-1.01-1.01zm-10.79 8.37c-0.19 0.18-0.45 0.29-0.71 0.29s-0.52-0.11-0.71-0.29c-0.18-0.19-0.29-0.45-0.29-0.71s0.11-0.52 0.29-0.71c0.1-0.09 0.2-0.16 0.33-0.21 0.37-0.16 0.81-0.07 1.09 0.21 0.18 0.19 0.29 0.45 0.29 0.71s-0.11 0.52-0.29 0.71zm0-3.5-0.15 0.12c-0.06 0.04-0.12 0.07-0.18 0.09-0.06 0.03-0.12 0.05-0.18 0.06-0.07 0.01-0.14 0.02-0.2 0.02-0.26 0-0.52-0.11-0.71-0.29-0.18-0.19-0.29-0.45-0.29-0.71s0.11-0.52 0.29-0.71c0.23-0.23 0.58-0.34 0.91-0.27 0.06 0.01 0.12 0.03 0.18 0.06 0.06 0.02 0.12 0.05 0.18 0.09l0.15 0.12c0.18 0.19 0.29 0.45 0.29 0.71s-0.11 0.52-0.29 0.71zm3.5 0c-0.19 0.18-0.45 0.29-0.71 0.29s-0.52-0.11-0.71-0.29c-0.18-0.19-0.29-0.45-0.29-0.71s0.11-0.52 0.29-0.71c0.38-0.37 1.05-0.37 1.42 0 0.18 0.19 0.29 0.45 0.29 0.71s-0.11 0.52-0.29 0.71z"/>
</svg>
